source/img/contact/icon-web.svg

<svg width="20" height="21" viewBox="0 0 20 21" fill="none" xmlns="http://www.w3.org/2000/svg">
<path fill-rule="evenodd" clip-rule="evenodd" d="M9.99961 0.514038C9.74619 0.514038 9.49499 0.52356 9.24635 0.542266C4.3117 0.913518 0.386324 4.90225 0.114629 9.86404C0.104659 10.0461 0.0996094 10.2295 0.0996094 10.414C0.0996094 10.5986 0.104659 10.782 0.114629 10.964C0.386324 15.9258 4.3117 19.9146 9.24635 20.2858C9.49499 20.3045 9.74619 20.314 9.99961 20.314C10.253 20.314 10.5042 20.3045 10.7529 20.2858C15.6875 19.9146 19.6129 15.9258 19.8846 10.964C19.8946 10.782 19.8996 10.5986 19.8996 10.414C19.8996 10.2295 19.8946 10.0461 19.8846 9.86404C19.6129 4.90225 15.6875 0.913518 10.7529 0.542266C10.5042 0.52356 10.253 0.514038 9.99961 0.514038ZM10.1877 1.61601C10.4644 2.00076 10.8104 2.54047 11.1577 3.23501C11.9031 4.72586 12.6567 6.93411 12.7417 9.86404H7.25755C7.34254 6.93411 8.09612 4.72586 8.84154 3.23501C9.18881 2.54047 9.53478 2.00076 9.81148 1.61601C9.87403 1.6147 9.93674 1.61404 9.99961 1.61404C10.0625 1.61404 10.1252 1.6147 10.1877 1.61601ZM7.25755 10.964H12.7417C12.6567 13.894 11.9031 16.1022 11.1577 17.5931C10.8104 18.2876 10.4644 18.8273 10.1877 19.2121C10.1252 19.2134 10.0625 19.214 9.99961 19.214C9.93674 19.214 9.87403 19.2134 9.81148 19.2121C9.53478 18.8273 9.18881 18.2876 8.84154 17.5931C8.09612 16.1022 7.34254 13.894 7.25755 10.964ZM6.15711 9.86404C6.24263 6.74142 7.04604 4.36633 7.85767 2.74307C8.04095 2.37652 8.22453 2.04851 8.4002 1.75903C4.47913 2.479 1.46726 5.79797 1.21652 9.86404H6.15711ZM1.21652 10.964H6.15711C6.24263 14.0867 7.04604 16.4617 7.85767 18.085C8.04095 18.4516 8.22453 18.7796 8.4002 19.069C4.47912 18.3491 1.46726 15.0301 1.21652 10.964ZM11.599 19.069C15.5201 18.3491 18.532 15.0301 18.7827 10.964H13.8421C13.7566 14.0867 12.9532 16.4617 12.1415 18.085C11.9583 18.4516 11.7747 18.7796 11.599 19.069ZM13.8421 9.86404C13.7566 6.74142 12.9532 4.36633 12.1415 2.74307C11.9583 2.37652 11.7747 2.04851 11.599 1.75903C15.5201 2.479 18.532 5.79797 18.7827 9.86404H13.8421Z" fill="black"/>
</svg>

<svg width="20" height="21" fill="none" xmlns="http://www.w3.org/2000/svg"><path fill-rule="evenodd" clip-rule="evenodd" d="M10 .514a9.901 9.901 0 10.753 19.772A9.901 9.901 0 0010 .514zm.188 1.102c.276.385.622.924.97 1.619.745 1.49 1.499 3.7 1.584 6.629H7.258c.085-2.93.838-5.138 1.584-6.629.347-.695.693-1.234.97-1.619a8.985 8.985 0 01.376 0zm-2.93 9.348h5.484c-.085 2.93-.839 5.138-1.584 6.63a11.887 11.887 0 01-.97 1.618 9.045 9.045 0 01-.377 0 11.884 11.884 0 01-.97-1.619c-.745-1.49-1.498-3.699-1.583-6.629zm-1.1-1.1c.085-3.123.888-5.498 1.7-7.12.183-.367.367-.695.542-.985a8.804 8.804 0 00-7.183 8.105h4.94zm-4.941 1.1h4.94c.086 3.123.889 5.498 1.7 7.121.184.367.368.695.543.984a8.804 8.804 0 01-7.183-8.105zm10.382 8.105a8.804 8.804 0 007.184-8.105h-4.94c-.086 3.123-.89 5.498-1.701 7.121-.184.367-.367.695-.543.984zm2.243-9.205c-.085-3.123-.889-5.498-1.7-7.12a13.71 13.71 0 00-.543-.985 8.804 8.804 0 017.184 8.105h-4.94z" fill="#000"/></svg>
